X: 1
T:An anglezed bonetou ruz - En Dro
C:Storvan
M:4/4
L:1/8
K:G
E|A2B2 c2cB|cBAc B2AB|c2B2 A3c|BAGA B3:|
E|A2B2 c3c|B2AB G4|A2GF E2A2|B2c2 A4|A2GF E2A2|B2cB A3|]
